public/formular-icons/numbers/7.svg

<svg style="vertical-align:-.05ex" xmlns="http://www.w3.org/2000/svg" width="1.131ex" height="1.579ex" viewBox="0 -676 500 698" xmlns:xlink="http://www.w3.org/1999/xlink"><defs><path id="a" d="M55 458q1 2 17 109l16 107q0 2 20 2h20v-4q0-10 15-17t52-9 169-2h121v-39l-68-93-30-40q-21-28-27-37t-21-32-20-36-14-37-13-46-8-54-6-68-3-82V52q0-14-1-24v-9q-4-17-19-29t-34-12q-11 0-21 3T179 0t-11 40q0 158 97 328 20 32 84 121l46 63h-93q-174 0-183-6-6-3-11-24t-10-43l-3-21v-3H55v3Z"/></defs><g stroke="currentColor" fill="currentColor" stroke-width="0"><use data-c="37" xlink:href="#a" transform="scale(1 -1)"/></g></svg>

<svg style="vertical-align: -0.05ex" xmlns="http://www.w3.org/2000/svg" width="1.131ex" height="1.579ex" role="img" focusable="false" viewBox="0 -676 500 698" xmlns:xlink="http://www.w3.org/1999/xlink"><defs><path id="MJX-29-TEX-N-37" d="M55 458Q56 460 72 567L88 674Q88 676 108 676H128V672Q128 662 143 655T195 646T364 644H485V605L417 512Q408 500 387 472T360 435T339 403T319 367T305 330T292 284T284 230T278 162T275 80Q275 66 275 52T274 28V19Q270 2 255 -10T221 -22Q210 -22 200 -19T179 0T168 40Q168 198 265 368Q285 400 349 489L395 552H302Q128 552 119 546Q113 543 108 522T98 479L95 458V455H55V458Z"></path></defs><g stroke="currentColor" fill="currentColor" stroke-width="0" transform="scale(1,-1)"><g data-mml-node="math"><g data-mml-node="mn"><use data-c="37" xlink:href="#MJX-29-TEX-N-37"></use></g></g></g></svg>
